austria/municipalities/30536.svg

<?xml version="1.0" encoding="UTF-8" standalone="no"?>
<!DOCTYPE svg PUBLIC "-//W3C//DTD SVG 1.0//EN"
"http://www.w3.org/TR/2001/REC-SVG-20010904/DTD/svg10.dtd">
<!-- Created with Sodipodi ("http://www.sodipodi.com/") -->
<svg
   xmlns="http://www.w3.org/2000/svg"
   xmlns:xlink="http://www.w3.org/1999/xlink"
   version="1.0"
   x="0"
   y="0"
   width="279"
   height="318"
   id="svg602">
  <defs
     id="defs1006" />
  <path
     d="M 9 8.000011 L 9 122 C 9 143.581 6.7222 166.564 9.1289 188 C 13.3772 225.841 31.7486 261.662 63 284.255 C 73.9264 292.154 85.43269 297.522 97.99999 302.189 C 113.512 307.949 130.555 309.681 147 308.961 C 168.326 308.027 187.04 299.852 206 291 L 207 290 C 240.754 271.208 263.053 233.948 267.714 196 C 270.182 175.903 268 154.253 268 134 L 268 8.000011 L 9 8.000011 L 9 8.000011 z "
     style="font-size:12;fill:#0b7d0d;stroke:#000000;stroke-width:3.75;"
     id="path604" />
  <g
     transform="translate(44.5199,46.40053)"
     style="font-size:12;fill:#ffea00;"
     id="g606">
    <path
       d="M 87 145 C 80.1608 144.685 80.5522 132.48 79.4491 127 C 75.9331 109.536 67.5865 89.3834 55.385 76.1736 C 35.7497 54.9157 8.10329 74.524 3.12037 98 C -0.04679 112.921 10.67 128.605 16 142 C 27.1919 136.068 29.1265 121.097 39.0039 113.394 C 57.6874 98.8242 68.9644 133.102 73 145 C 66.0021 146.75 55.9603 159.695 65 165 C 64.043 170.254 63.9783 174.04 70 175 C 62.2202 205.793 37.0005 174.231 27 163 C 25.4837 176.793 30.6425 201.408 44.0008 208.427 C 60.2924 216.989 77.8232 189.394 79 176 L 86 176 C 85.9981 193.011 75.904 210.229 80.49 227 C 81.974 232.427 87.24 242.872 94 242.872 C 100.76 242.872 106.026 232.427 107.51 227 C 112.096 210.229 102.002 193.011 102 176 L 109 176 C 110.177 189.394 127.708 216.989 143.999 208.427 C 157.357 201.408 162.516 176.793 161 163 C 151 174.23 125.78 205.793 118 175 C 124.022 174.04 123.957 170.254 123 165 C 132.04 159.695 121.998 146.75 115 145 C 119.036 133.102 130.313 98.8242 148.996 113.394 C 158.874 121.097 160.808 136.068 172 142 C 177.33 128.605 188.047 112.921 184.88 98 C 179.897 74.524 152.25 54.9157 132.615 76.1736 C 120.413 89.3834 112.067 109.536 108.551 127 C 107.448 132.48 107.839 144.685 101 145 C 103.683 135.04 102.036 124.205 104.735 114 C 111.765 87.4183 123.43 65.1053 116.221 37 C 114.011 28.3868 105.114 4.60649 94 4.60649 C 82.8862 4.60649 73.9886 28.3868 71.7793 37 C 64.4429 65.6027 76.7884 87.9225 83.5247 115 C 85.9716 124.836 84.292 135.465 87 145 z "
       id="path607" />
  </g>
  <g
     transform="matrix(0.953217,0,0,0.953217,12.45217,0.382869)"
     style="font-size:12;"
     id="g639">
    <g
       transform="matrix(-1.341926,0,0,1.319867,266.1678,9.997851)"
       style="fill:#0419c3;"
       id="g637">
      <path
         d="M 0 0 L 100 0 L 0 100 L 0 0 z "
         id="path638" />
    </g>
    <g
       transform="matrix(-0.781145,0,0,0.781145,274.5224,2.228439)"
       id="g628">
      <rect
         width="34.334465"
         height="34.334465"
         x="-16.3186626"
         y="32.4155121"
         transform="matrix(0.707107,-0.707107,0.707107,0.707107,0,0)"
         style="fill:#ffea00;fill-rule:evenodd;"
         id="rect629" />
      <rect
         width="34.3344727"
         height="34.3344727"
         x="18.1736164"
         y="66.9078217"
         transform="matrix(0.707107,-0.707107,0.707107,0.707107,0,0)"
         style="fill:#ffea00;fill-rule:evenodd;"
         id="rect630" />
      <rect
         width="34.3344803"
         height="34.3344803"
         x="-50.8109169"
         y="66.4598846"
         transform="matrix(0.707107,-0.707107,0.707107,0.707107,0,0)"
         style="fill:#ffea00;fill-rule:evenodd;"
         id="rect631" />
      <rect
         width="34.3344879"
         height="34.3344879"
         x="-16.0946884"
         y="101.176163"
         transform="matrix(0.707107,-0.707107,0.707107,0.707107,0,0)"
         style="fill:#ffea00;fill-rule:evenodd;"
         id="rect632" />
      <rect
         width="34.3344955"
         height="34.3344955"
         x="52.4419098"
         y="101.176178"
         transform="matrix(0.707107,-0.707107,0.707107,0.707107,0,0)"
         style="fill:#ffea00;fill-rule:evenodd;"
         id="rect633" />
      <rect
         width="34.3345108"
         height="34.3345108"
         x="-85.0792313"
         y="100.728279"
         transform="matrix(0.707107,-0.707107,0.707107,0.707107,0,0)"
         style="fill:#ffea00;fill-rule:evenodd;"
         id="rect634" />
    </g>
  </g>
  <g
     transform="matrix(-0.953217,0,0,0.953217,264.6172,0.297992)"
     style="font-size:12;"
     id="g659">
    <g
       transform="matrix(-1.341926,0,0,1.319867,266.1678,9.997851)"
       style="fill:#0419c3;"
       id="g660">
      <path
         d="M 0 0 L 100 0 L 0 100 L 0 0 z "
         id="path661" />
    </g>
    <g
       transform="matrix(-0.781145,0,0,0.781145,274.5224,2.228439)"
       id="g662">
      <rect
         width="34.334465"
         height="34.334465"
         x="-16.3186626"
         y="32.4155121"
         transform="matrix(0.707107,-0.707107,0.707107,0.707107,0,0)"
         style="fill:#ffea00;fill-rule:evenodd;"
         id="rect663" />
      <rect
         width="34.3344727"
         height="34.3344727"
         x="18.1736164"
         y="66.9078217"
         transform="matrix(0.707107,-0.707107,0.707107,0.707107,0,0)"
         style="fill:#ffea00;fill-rule:evenodd;"
         id="rect664" />
      <rect
         width="34.3344803"
         height="34.3344803"
         x="-50.8109169"
         y="66.4598846"
         transform="matrix(0.707107,-0.707107,0.707107,0.707107,0,0)"
         style="fill:#ffea00;fill-rule:evenodd;"
         id="rect665" />
      <rect
         width="34.3344879"
         height="34.3344879"
         x="-16.0946884"
         y="101.176163"
         transform="matrix(0.707107,-0.707107,0.707107,0.707107,0,0)"
         style="fill:#ffea00;fill-rule:evenodd;"
         id="rect666" />
      <rect
         width="34.3344955"
         height="34.3344955"
         x="52.4419098"
         y="101.176178"
         transform="matrix(0.707107,-0.707107,0.707107,0.707107,0,0)"
         style="fill:#ffea00;fill-rule:evenodd;"
         id="rect667" />
      <rect
         width="34.3345108"
         height="34.3345108"
         x="-85.0792313"
         y="100.728279"
         transform="matrix(0.707107,-0.707107,0.707107,0.707107,0,0)"
         style="fill:#ffea00;fill-rule:evenodd;"
         id="rect668" />
    </g>
  </g>
</svg>

<svg xmlns="http://www.w3.org/2000/svg" version="1.0" width="279" height="318"><path d="M9 8v114c0 21.581-2.278 44.564.129 66 4.248 37.841 22.62 73.662 53.871 96.255 10.926 7.899 22.433 13.267 35 17.934 15.512 5.76 32.555 7.492 49 6.772 21.326-.934 40.04-9.109 59-17.961l1-1c33.754-18.792 56.053-56.052 60.714-94 2.468-20.097.286-41.747.286-62V8H9z" style="font-size:12;fill:#0b7d0d;stroke:#000;stroke-width:3.75"/><path d="M87 145c-6.84-.315-6.448-12.52-7.55-18-3.517-17.464-11.864-37.617-24.065-50.826C35.75 54.916 8.103 74.524 3.12 98c-3.167 14.921 7.55 30.605 12.88 44 11.192-5.932 13.127-20.903 23.004-28.606C57.687 98.824 68.964 133.102 73 145c-6.998 1.75-17.04 14.695-8 20-.957 5.254-1.022 9.04 5 10-7.78 30.793-33-.769-43-12-1.516 13.793 3.642 38.408 17 45.427 16.292 8.562 33.823-19.033 35-32.427h7c-.002 17.011-10.096 34.229-5.51 51 1.484 5.427 6.75 15.872 13.51 15.872s12.026-10.445 13.51-15.872c4.586-16.771-5.508-33.989-5.51-51h7c1.177 13.394 18.708 40.989 34.999 32.427C157.357 201.408 162.516 176.793 161 163c-10 11.23-35.22 42.793-43 12 6.022-.96 5.957-4.746 5-10 9.04-5.305-1.002-18.25-8-20 4.036-11.898 15.313-46.176 33.996-31.606 9.878 7.703 11.812 22.674 23.004 28.606 5.33-13.395 16.047-29.079 12.88-44-4.983-23.476-32.63-43.084-52.265-21.826-12.202 13.21-20.548 33.362-24.064 50.826-1.103 5.48-.712 17.685-7.551 18 2.683-9.96 1.036-20.795 3.735-31 7.03-26.582 18.695-48.895 11.486-77C114.011 28.387 105.114 4.606 94 4.606S73.989 28.386 71.78 37c-7.337 28.603 5.008 50.922 11.745 78 2.447 9.836.767 20.465 3.475 30z" transform="translate(44.52 46.4)" style="font-size:12;fill:#ffea00"/><g style="font-size:12"><path d="M0 0h100L0 100V0z" transform="matrix(-1.27915 0 0 1.25812 266.168 9.913)" style="fill:#0419c3"/><path transform="scale(-.7446 .7446) rotate(-45 -180.015 446.09)" style="fill:#ffea00;fill-rule:evenodd" d="M-16.319 32.416h34.334V66.75h-34.334zM18.174 66.908h34.334v34.334H18.174zM-50.811 66.46h34.334v34.334h-34.334z"/><path transform="scale(-.7446 .7446) rotate(-45 -180.015 446.09)" style="fill:#ffea00;fill-rule:evenodd" d="M-16.095 101.176h34.334v34.334h-34.334zM52.442 101.176h34.334v34.334H52.442zM-85.079 100.728h34.335v34.335h-34.335z"/></g><g style="font-size:12"><path d="M0 0h100L0 100V0z" transform="matrix(1.27915 0 0 1.25812 10.902 9.828)" style="fill:#0419c3"/><path transform="rotate(-45 4.393 -2.335) scale(.7446)" style="fill:#ffea00;fill-rule:evenodd" d="M-16.319 32.416h34.334V66.75h-34.334zM18.174 66.908h34.334v34.334H18.174zM-50.811 66.46h34.334v34.334h-34.334z"/><path transform="rotate(-45 4.393 -2.335) scale(.7446)" style="fill:#ffea00;fill-rule:evenodd" d="M-16.095 101.176h34.334v34.334h-34.334zM52.442 101.176h34.334v34.334H52.442zM-85.079 100.728h34.335v34.335h-34.335z"/></g></svg>
